assets/efishery/kincir.svg

<svg width="24" height="25" viewBox="0 0 24 25" fill="none" xmlns="http://www.w3.org/2000/svg">
<path d="M7 7.02344C7 4.95237 8.67893 3.27344 10.75 3.27344C12.8211 3.27344 14.5 4.95237 14.5 7.02344V8.02344C14.5 8.43765 14.1642 8.77344 13.75 8.77344C13.3358 8.77344 13 8.43765 13 8.02344V7.02344C13 5.7808 11.9926 4.77344 10.75 4.77344C9.50736 4.77344 8.5 5.7808 8.5 7.02344V9.52344C8.5 9.93765 8.16421 10.2734 7.75 10.2734C7.33579 10.2734 7 9.93765 7 9.52344V7.02344Z" fill="#1D1D1D"/>
<path d="M10 10.0234C10 9.60922 10.3358 9.27344 10.75 9.27344H12.25C12.6642 9.27344 13 9.60922 13 10.0234C13 10.4377 12.6642 10.7734 12.25 10.7734H10.75C10.3358 10.7734 10 10.4377 10 10.0234Z" fill="#1D1D1D"/>
<path fill-rule="evenodd" clip-rule="evenodd" d="M16.4999 9.02344C16.4999 8.8011 16.4013 8.59022 16.2306 8.44772C16.0599 8.30522 15.8348 8.2458 15.616 8.28549C14.4068 8.50489 13.6892 9.21794 13.3249 10.0206C13.0795 10.5613 12.9976 11.1299 13.0001 11.6062C12.6179 11.7577 12.2601 11.9573 11.9342 12.1977C11.8902 12.1439 11.838 12.0954 11.7779 12.0541L9.30556 10.3549C9.12232 10.2289 8.89265 10.1908 8.67854 10.2507C8.46443 10.3107 8.28796 10.4625 8.19676 10.6653C7.69262 11.7862 7.87381 12.7815 8.32899 13.5363C8.76118 14.2531 9.42319 14.7336 9.9118 14.9697C9.97392 14.9998 10.0384 15.0205 10.1035 15.0324C10.0767 15.1591 10.0548 15.2876 10.0383 15.4177L7.51848 16.2365C7.30702 16.3052 7.13694 16.4642 7.05416 16.6705C6.97138 16.8769 6.98443 17.1093 7.08978 17.3051C7.50557 18.0779 8.08323 18.5345 8.69848 18.7683C8.42318 18.9169 8.16977 19.0965 7.94604 19.3033C7.98084 19.2168 8 19.1224 8 19.0234C8 18.6092 7.66421 18.2734 7.25 18.2734H6.75C4.95507 18.2734 3.5 16.8184 3.5 15.0234V14.7734H7.25C7.66421 14.7734 8 14.4377 8 14.0234C8 13.6092 7.66421 13.2734 7.25 13.2734H2.75C2.33579 13.2734 2 13.6092 2 14.0234V15.0234C2 17.6468 4.12665 19.7734 6.75 19.7734H7.25C7.37013 19.7734 7.48366 19.7452 7.58431 19.695C7.32057 20.0316 7.12557 20.4186 7.02148 20.8459C6.92345 21.2484 7.17023 21.6541 7.57267 21.7521C7.97512 21.8502 8.38084 21.6034 8.47887 21.2009C8.65685 20.4702 9.50166 19.7734 10.6902 19.7734C11.3037 19.7734 11.8459 19.9659 12.2418 20.2612C12.5078 20.4596 12.8726 20.4596 13.1386 20.2612C13.5345 19.9659 14.0766 19.7734 14.6902 19.7734C15.3037 19.7734 15.8459 19.9659 16.2418 20.2612C16.5078 20.4596 16.8726 20.4596 17.1386 20.2612C17.5345 19.9659 18.0766 19.7734 18.6902 19.7734C19.8787 19.7734 20.7235 20.4702 20.9015 21.2009C20.9995 21.6034 21.4052 21.8502 21.8077 21.7521C22.2101 21.6541 22.4569 21.2484 22.3588 20.8459C22.2542 20.4163 22.0577 20.0274 21.7918 19.6896C21.8288 19.6764 21.8649 19.6603 21.8999 19.6412C22.0951 19.5346 22.2328 19.3469 22.2761 19.1288C22.5152 17.9233 22.1147 16.9943 21.5014 16.3611C20.9191 15.76 20.1659 15.4407 19.6367 15.3205C19.5728 15.306 19.5086 15.3001 19.4456 15.3022C19.4383 15.2542 19.4302 15.2064 19.4215 15.1588C19.4679 15.1334 19.5123 15.1026 19.5539 15.0665L21.818 13.0983C21.9858 12.9525 22.0803 12.7396 22.0758 12.5174C22.0714 12.2951 21.9686 12.0862 21.7951 11.9471C20.8361 11.1784 19.8272 11.1046 18.9824 11.3563C18.3964 11.5308 17.9018 11.8557 17.541 12.1795C17.2217 11.9473 16.8724 11.7538 16.4999 11.6062V9.02344ZM12.6902 18.7717C12.6279 18.7378 12.5645 18.7054 12.5 18.6747C12.5013 18.4965 12.4395 18.3171 12.3123 18.173C12.1546 17.9943 12.0164 17.7984 11.9007 17.5884L11.5256 16.4339C11.5087 16.2995 11.5 16.1625 11.5 16.0234C11.5 14.2306 12.9517 12.7768 14.7438 12.7734H14.7562C16.5483 12.7768 18 14.2306 18 16.0234C18 16.8482 17.6938 17.5996 17.1877 18.173C17.0736 18.3022 17.0122 18.4597 17.0016 18.6194C16.8949 18.6659 16.791 18.7167 16.6902 18.7717C16.4722 18.6529 16.2399 18.5534 15.9966 18.4753C16.8889 18.0208 17.5 17.0935 17.5 16.0234C17.5 14.5047 16.2688 13.2734 14.75 13.2734C13.2312 13.2734 12 14.5047 12 16.0234C12 17.0755 12.5908 17.9896 13.4588 18.4521C13.1881 18.5332 12.9304 18.6407 12.6902 18.7717ZM10.0957 16.9763C10.1275 17.1322 10.1669 17.2855 10.2136 17.4355C10.0227 17.468 9.81786 17.4801 9.61549 17.4574C9.43892 17.4375 9.26069 17.3917 9.08932 17.3033L10.0957 16.9763ZM14.9999 11.2734V10.1877C14.8628 10.3234 14.7642 10.4787 14.6908 10.6405C14.5982 10.8445 14.5448 11.0644 14.5191 11.2734L14.75 11.2734L14.9999 11.2734ZM14.75 14.7734C14.0596 14.7734 13.5 15.3331 13.5 16.0234C13.5 16.7138 14.0596 17.2734 14.75 17.2734C15.4404 17.2734 16 16.7138 16 16.0234C16 15.3331 15.4404 14.7734 14.75 14.7734ZM10.0379 13.2618L10.3102 12.8655L9.41548 12.2505C9.44963 12.4403 9.52178 12.6096 9.61354 12.7618C9.72922 12.9536 9.88012 13.1222 10.0379 13.2618ZM18.8203 13.0795L19.1358 13.4424L19.9552 12.7301C19.7629 12.7156 19.581 12.7431 19.4107 12.7938C19.196 12.8578 18.995 12.9617 18.8203 13.0795ZM19.7219 17.4605L19.8981 17.0131C20.0832 17.1136 20.2682 17.2439 20.424 17.4048C20.5477 17.5324 20.656 17.6811 20.732 17.8584L19.7219 17.4605Z" fill="#1D1D1D"/>
<path d="M2.75 11.2734C2.33579 11.2734 2 11.6092 2 12.0234C2 12.4377 2.33579 12.7734 2.75 12.7734H6.75C7.16421 12.7734 7.5 12.4377 7.5 12.0234C7.5 11.6092 7.16421 11.2734 6.75 11.2734H2.75Z" fill="#1D1D1D"/>
</svg>

<svg viewBox="0 0 24 25" xmlns="http://www.w3.org/2000/svg">
  <path d="M7 7.023a3.75 3.75 0 1 1 7.5 0v1a.75.75 0 0 1-1.5 0v-1a2.25 2.25 0 0 0-4.5 0v2.5a.75.75 0 0 1-1.5 0v-2.5z"/>
  <path d="M10 10.023a.75.75 0 0 1 .75-.75h1.5a.75.75 0 1 1 0 1.5h-1.5a.75.75 0 0 1-.75-.75z"/>
  <path fill-rule="evenodd" clip-rule="evenodd" d="M16.5 9.023a.75.75 0 0 0-.884-.738c-1.21.22-1.927.933-2.291 1.736A3.83 3.83 0 0 0 13 11.606c-.382.152-.74.351-1.066.592a.75.75 0 0 0-.156-.144l-2.472-1.7a.75.75 0 0 0-1.11.311c-.503 1.121-.322 2.117.133 2.871a3.894 3.894 0 0 0 1.583 1.434c.062.03.126.05.191.062a4.749 4.749 0 0 0-.065.386l-2.52.819a.75.75 0 0 0-.428 1.068c.416.773.993 1.23 1.608 1.463a3.69 3.69 0 0 0-.752.535.75.75 0 0 0-.696-1.03h-.5a3.25 3.25 0 0 1-3.25-3.25v-.25h3.75a.75.75 0 1 0 0-1.5h-4.5a.75.75 0 0 0-.75.75v1a4.75 4.75 0 0 0 4.75 4.75h.5c.12 0 .234-.028.334-.078a3.02 3.02 0 0 0-.563 1.15.75.75 0 1 0 1.458.356c.178-.73 1.023-1.428 2.211-1.428a2.6 2.6 0 0 1 1.552.488.75.75 0 0 0 .897 0 2.599 2.599 0 0 1 1.551-.488 2.6 2.6 0 0 1 1.552.488.75.75 0 0 0 .897 0 2.599 2.599 0 0 1 1.551-.488c1.189 0 2.034.697 2.211 1.428a.75.75 0 1 0 1.458-.355 3.019 3.019 0 0 0-.567-1.156.755.755 0 0 0 .484-.561c.24-1.206-.161-2.135-.775-2.768a3.895 3.895 0 0 0-1.864-1.04.75.75 0 0 0-.191-.019 4.871 4.871 0 0 0-.024-.143.756.756 0 0 0 .132-.093l2.264-1.968a.75.75 0 0 0-.023-1.15c-.959-.77-1.968-.843-2.813-.592a3.84 3.84 0 0 0-1.441.824 4.738 4.738 0 0 0-1.041-.574V9.023zm-3.81 9.749a3.947 3.947 0 0 0-.19-.097.748.748 0 0 0-.188-.502 3.264 3.264 0 0 1-.411-.585l-.375-1.154a3.25 3.25 0 0 1 3.218-3.66h.012a3.25 3.25 0 0 1 2.432 5.399.747.747 0 0 0-.186.446c-.107.047-.211.098-.312.153a4.012 4.012 0 0 0-.693-.297 2.75 2.75 0 1 0-2.538-.023c-.27.081-.529.189-.769.32zm-2.594-1.796c.031.156.07.31.118.46-.191.032-.396.044-.599.021a1.503 1.503 0 0 1-.526-.154l1.007-.327zM15 11.273v-1.085a1.5 1.5 0 0 0-.31.452 2.188 2.188 0 0 0-.17.633H15zm-.25 3.5a1.25 1.25 0 1 0 0 2.5 1.25 1.25 0 0 0 0-2.5zm-4.712-1.511.272-.396-.895-.615c.035.19.107.359.199.51.115.193.266.361.424.5zm8.782-.183.316.363.82-.712a1.5 1.5 0 0 0-.545.064 2.19 2.19 0 0 0-.59.285zm.902 4.381.176-.447c.185.1.37.23.526.392a1.5 1.5 0 0 1 .308.453l-1.01-.398z"/>
  <path d="M2.75 11.273a.75.75 0 0 0 0 1.5h4a.75.75 0 1 0 0-1.5h-4z"/>
</svg>
